X: 3392
M: 2/4
L: 1/16
K: G
(udc) |\
d2d2d2d2 | c3de2c2 | BBB2 AAA2 | G2B2G2 :|
|: (cB) |\
d2d2d2d2 | e3fg2c2 | BBB2 AAA2 | G2B2G2 :|


